X:81
T: Hegyen földön járogatok vala
O: Trunk (Bákó), 1938
Q: 1/4=144
L:1/8
K:G
c(B/A/) BA GG FF | (A3B//A//B//) A z |
c(B/A/) BA GG FF | (G3A/G/) F z |
FFAA GGEF | D3 D z |
AAAA GG EF | D3 D z |

